X: 25280
T: Man Of Constant Sorrow
R: barndance
M: 4/4
K: Gmajor
z2 ef e2 d2|:A8-|A2 c2 B2 AG|B2 d6-|dBd z g2 g2|e8-|e2 dB A2 B2|A8-|1 A2 ef e2 d2:|2 z2 Bd e2 f2||
a8-|a2 a2 f2 ed|B2 d6|z2 Bd e2 f2|a8-|a2 a2 f2 ed|e8-|e2 ef e2 d2|
A8-|A2 c2 B2 AG|B2 d6-|dBd z g2 g2|e8-|e2 dB A2 B2|A8-|A8||

